icons/desktop/16/svg/fullscreen-expand-16.svg

<svg width="16" height="16" viewBox="0 0 16 16" fill="none" xmlns="http://www.w3.org/2000/svg">
<path d="M14.501 1C14.777 1 15.001 1.224 15.001 1.5V5.29297C15.001 5.73775 14.4625 5.96179 14.1475 5.64746L12.7803 4.28027L4.28027 12.7793L5.64648 14.1455C5.96145 14.4605 5.73798 15 5.29199 15H1.5C1.22402 15 1.00003 14.776 1 14.5V10.707C1 10.2622 1.53845 10.0382 1.85352 10.3525L3.21973 11.7188L11.7197 3.21875L10.3545 1.85352C10.0395 1.53852 10.262 1 10.708 1H14.501Z" fill="black"/>
</svg>

<!-- This Source Code Form is subject to the terms of the Mozilla Public
   - License, v. 2.0. If a copy of the MPL was not distributed with this
   - file, You can obtain one at http://mozilla.org/MPL/2.0/. -->
<svg xmlns="http://www.w3.org/2000/svg" width="16" height="16" fill="context-fill" fill-opacity="context-fill-opacity" viewBox="0 0 16 16">
    <path d="M14.501 1a.5.5 0 0 1 .5.5v3.793a.5.5 0 0 1-.853.354L12.78 4.28l-8.5 8.5 1.366 1.366a.5.5 0 0 1-.354.854H1.5a.5.5 0 0 1-.5-.5v-3.793a.5.5 0 0 1 .854-.355L3.22 11.72l8.5-8.5-1.366-1.365A.5.5 0 0 1 10.708 1z" />
</svg>
